X: 1
T: P.J.’s Pecurious Pachelbel Special
M: 4/4
L: 1/8
R: reel
K: Dmaj
S: John Williams, Steam
N: Originally played in the key of C
(3ABc|:d3 c defg|a3 b agfe|B3 c dcdB|A2 AB ADEF|
|G3 A BABc|dAB/c/d faba|gfed Bdce|1 fddc dABc:|2 fddc daag||
|:fada fadf|eaca eace|dfBf dfBf|AdFd AdFA|
|G3 A BABc|dAB/c/d faba|gfed Bdce|1 fddc daag:|2 fddc dABc|]

